kora/panel/16/fcitx-pinyin-panel.svg

<svg xmlns="http://www.w3.org/2000/svg" width="16" height="16" version="1.1">
 <defs>
  <style id="current-color-scheme" type="text/css">
   .ColorScheme-Text { color:#dfdfdf; } .ColorScheme-Highlight { color:#4285f4; }
  </style>
 </defs>
 <path style="fill:currentColor" class="ColorScheme-Text" d="M 2 0 C 0.892 0 0 0.892 0 2 L 0 14 C 0 15.108 0.892 16 2 16 L 14 16 C 15.108 16 16 15.108 16 14 L 16 2 C 16 0.892 15.108 0 14 0 L 2 0 z M 7.9004 1.6992 L 9.4004 3.6992 L 9.002 4 L 10.998 4 L 10.6 3.6992 L 12.1 1.6992 L 12.9 2.3008 L 11.625 4 L 14 4 L 14 5 L 12 5 L 12 8 L 14 8 L 14 9 L 12 9 L 12 14 L 11 14 L 11 9 L 8.959 9 C 8.863 10.12 8.4822 11.031 8.0332 11.811 C 7.4122 12.881 6.3418 13.865 6.3418 13.865 L 5.6582 13.137 C 5.6582 13.137 6.6707 12.171 7.168 11.311 C 7.569 10.611 7.8719 9.9 7.9609 9 L 6 9 L 6 8.0605 L 5 8.5605 L 5 14 L 2 14 L 2 13 L 4 13 L 4 9.0605 L 2.2227 9.9492 L 1.7773 9.0508 L 4 7.9395 L 4 5 L 2 5 L 2 4 L 4 4 L 4 2 L 5 2 L 5 4 L 6 4 L 6 5 L 5 5 L 5 7.4395 L 5.7773 7.0508 L 6.2227 7.9492 L 6.1172 8 L 8 8 L 8 5 L 7 5 L 7 4 L 8.375 4 L 7.0996 2.3008 L 7.9004 1.6992 z M 9 5 L 9 8 L 11 8 L 11 5 L 9 5 z"/>
</svg>

<svg xmlns="http://www.w3.org/2000/svg" width="16" height="16" viewBox="0 0 16 16">
 <defs>
  <style id="current-color-scheme" type="text/css">
   .ColorScheme-Text { color:#dfdfdf; } .ColorScheme-Highlight { color:#4285f4; } .ColorScheme-NeutralText { color:#ff9800; } .ColorScheme-PositiveText { color:#4caf50; } .ColorScheme-NegativeText { color:#f44336; }
  </style>
 </defs>
 <path style="fill:currentColor" class="ColorScheme-Text" d="m7.9 1.699 1.5 2-.398.301h1.996l-.398-.301 1.5-2 .8.602-1.275 1.699h2.375v1h-2v3h2v1h-2v5h-1v-5h-2.041c-.096 1.12-.477 2.031-.926 2.811-.621 1.07-1.691 2.054-1.691 2.054l-.684-.728s1.013-.966 1.51-1.826c.401-.7.704-1.411.793-2.311h-1.961v-.94l-1 .5v5.44h-3v-1h2v-3.94l-1.777.889-.446-.898 2.223-1.112v-2.939h-2v-1h2v-2h1v2h1v1h-1v2.439l.777-.388.446.898-.106.051h1.883v-3h-1v-1h1.375l-1.275-1.699zm1.1 3.301v3h2v-3z" fill="#dfdfdf"/>
</svg>
